icons/arrow-reverse-shortv.svg

<svg width="24" height="24" viewBox="0 0 24 24" fill="none" xmlns="http://www.w3.org/2000/svg">
<path fill-rule="evenodd" clip-rule="evenodd" d="M10.4197 11.5804C10.7126 11.8733 11.1875 11.8733 11.4804 11.5804C11.7732 11.2875 11.7732 10.8126 11.4804 10.5197L8.08035 7.11972C7.80984 6.8492 7.45071 6.67505 7.05002 6.67505C6.64934 6.67505 6.29021 6.8492 6.01969 7.11972L2.61969 10.5197C2.3268 10.8126 2.3268 11.2875 2.61969 11.5804C2.91259 11.8733 3.38746 11.8733 3.68035 11.5804L6.30003 8.9607L6.30003 16.5501C6.30003 16.9643 6.63582 17.3001 7.05003 17.3001C7.46424 17.3001 7.80003 16.9643 7.80003 16.5501L7.80003 8.96072L10.4197 11.5804ZM17.7 7.45006C17.7 7.03584 17.3642 6.70006 16.95 6.70006C16.5358 6.70006 16.2 7.03584 16.2 7.45006V15.0394L13.5803 12.4197C13.2875 12.1268 12.8126 12.1268 12.5197 12.4197C12.2268 12.7126 12.2268 13.1875 12.5197 13.4804L15.9197 16.8804C16.1902 17.1509 16.5493 17.3251 16.95 17.3251C17.3507 17.3251 17.7098 17.1509 17.9803 16.8804L21.3803 13.4804C21.6732 13.1875 21.6732 12.7126 21.3803 12.4197C21.0875 12.1268 20.6126 12.1268 20.3197 12.4197L17.7 15.0394V7.45006Z" fill="black"/>
</svg>

<svg xmlns="http://www.w3.org/2000/svg" fill="none" viewBox="0 0 24 24">
  <path fill="#000" fill-rule="evenodd" d="M10.42 11.58a.75.75 0 0 0 1.06-1.06l-3.4-3.4c-.27-.27-.63-.445-1.03-.445s-.76.174-1.03.445l-3.4 3.4a.75.75 0 0 0 1.06 1.06L6.3 8.96v7.59a.75.75 0 0 0 1.5 0V8.96l2.62 2.62Zm7.28-4.13a.75.75 0 0 0-1.5 0v7.59l-2.62-2.62a.75.75 0 1 0-1.06 1.06l3.4 3.4c.27.27.63.445 1.03.445s.76-.174 1.03-.445l3.4-3.4a.75.75 0 0 0-1.06-1.06l-2.62 2.62V7.45Z" clip-rule="evenodd"/>
</svg>
